X: 3202
T: Willie Duncan.   a Strathspey.
C: by Nath. Gow.
%R: strathspey
B: Niel Gow & Sons "Complete Repository" v.3 p.20 #2
Z: 2021 John Chambers <jc:trillian.mit.edu>
M: C
L: 1/8
K: C
% - - - - - - - - - -
V: 1 staves=2
E !segno!|:\
C<C C>G EC TE2 | D<D d>F Dd-d>(f | e)>cd>B cAG2 | (A/B/c) G>E Gc-c>e :| c<c c>a gce2 | d<d a>d fdfa |
gaef dBTc2 | (A/B/c) GE Gc-c>e || c<c c>a gce2 | d<d a>d fdfa | gaef dece | (A/B/c) ~G>E Gcce |]
% - - - - - - - - - -
V: 2 clef=bass middle=d
z !segno!|:\
[c2C2]c2 c2c2 | [d2D2]d2 d2d2 | c2g2 a2e2 | f2g2 c2c2 :| c'2c'2 c'2c'2 | d'2d'2 d2d2 |
e2c2 g2e2 | f2g2 c2c2 || c'2c'2 c'2c'2 | d'2d'2 d2d2 | e2c2 g2e2 | f2g2 c2c2 |]


